; generated by Slic3r 0.9.8 on 2013-03-29 at 07:52:25

; layer_height = 0.25
; perimeters = 3
; top_solid_layers = 3
; bottom_solid_layers = 3
; fill_density = 1
; perimeter_speed = 35
; infill_speed = 30
; travel_speed = 40
; scale = 1
; nozzle_diameter = 0.43
; filament_diameter = 3
; extrusion_multiplier = 1.00
; perimeters extrusion width = 0.60mm
; infill extrusion width = 0.60mm
; first layer extrusion width = 0.25mm

M107 ; disable fan
M104 S220 ; set temperature
G28 ; home all axes
M109 S220 ; wait for temperature to be reached
G90 ; use absolute coordinates
G21 ; set units to millimeters
G92 E0 ; reset extrusion distance
M82 ; use absolute distances for extrusion
G1 F1200.000 E-3.50000 ; retract
G92 E0 ; reset extrusion distance
G1 Z0.250 F2400.000 ; move to next layer (0)
G1 X101.610 Y85.450 ; move to first skirt point
G1 F1200.000 E3.50000 ; compensate retraction
G1 X101.180 Y85.950 F1680.000 E3.50673 ; skirt
G1 X100.710 Y86.400 E3.51337 ; skirt
G1 X100.450 Y86.610 E3.51679 ; skirt
G1 X98.250 Y88.290 E3.54504 ; skirt
G1 X97.690 Y88.630 E3.55173 ; skirt
G1 X97.100 Y88.920 E3.55844 ; skirt
G1 X94.840 Y89.860 E3.58343 ; skirt
G1 X94.210 Y90.080 E3.59024 ; skirt
G1 X93.570 Y90.230 E3.59695 ; skirt
G1 X90.810 Y90.600 E3.62538 ; skirt
G1 X90.150 Y90.660 E3.63214 ; skirt
G1 X89.490 Y90.640 E3.63888 ; skirt
G1 X86.750 Y90.280 E3.66709 ; skirt
G1 X86.420 Y90.230 E3.67050 ; skirt
G1 X85.780 Y90.080 E3.67721 ; skirt
G1 X85.150 Y89.860 E3.68402 ; skirt
G1 X82.890 Y88.920 E3.70901 ; skirt
G1 X82.300 Y88.630 E3.71572 ; skirt
G1 X82.020 Y88.470 E3.71901 ; skirt
G1 X81.480 Y88.100 E3.72569 ; skirt
G1 X79.540 Y86.610 E3.75067 ; skirt
G1 X79.280 Y86.400 E3.75408 ; skirt
G1 X78.810 Y85.950 E3.76072 ; skirt
G1 X78.380 Y85.450 E3.76745 ; skirt
G1 X76.700 Y83.250 E3.79571 ; skirt
G1 X76.360 Y82.690 E3.80240 ; skirt
G1 X76.070 Y82.100 E3.80911 ; skirt
G1 X75.130 Y79.840 E3.83409 ; skirt
G1 X74.910 Y79.210 E3.84091 ; skirt
G1 X74.760 Y78.570 E3.84762 ; skirt
G1 X74.390 Y75.820 E3.87594 ; skirt
G1 X74.330 Y75.170 E3.88260 ; skirt
G1 X74.350 Y74.510 E3.88935 ; skirt
G1 X74.760 Y71.420 E3.92116 ; skirt
G1 X74.910 Y70.780 E3.92787 ; skirt
G1 X75.010 Y70.460 E3.93130 ; skirt
G1 X76.070 Y67.890 E3.95968 ; skirt
G1 X76.360 Y67.300 E3.96639 ; skirt
G1 X76.520 Y67.020 E3.96968 ; skirt
G1 X76.890 Y66.480 E3.97636 ; skirt
G1 X78.380 Y64.540 E4.00133 ; skirt
G1 X78.590 Y64.280 E4.00474 ; skirt
G1 X79.040 Y63.810 E4.01139 ; skirt
G1 X79.540 Y63.380 E4.01812 ; skirt
G1 X81.740 Y61.700 E4.04638 ; skirt
G1 X82.300 Y61.360 E4.05306 ; skirt
G1 X82.890 Y61.070 E4.05977 ; skirt
G1 X85.150 Y60.130 E4.08476 ; skirt
G1 X85.780 Y59.910 E4.09157 ; skirt
G1 X86.420 Y59.760 E4.09828 ; skirt
G1 X89.170 Y59.390 E4.12661 ; skirt
G1 X89.820 Y59.330 E4.13327 ; skirt
G1 X90.480 Y59.350 E4.14001 ; skirt
G1 X93.570 Y59.760 E4.17183 ; skirt
G1 X94.210 Y59.910 E4.17854 ; skirt
G1 X94.530 Y60.010 E4.18196 ; skirt
G1 X97.100 Y61.070 E4.21034 ; skirt
G1 X97.690 Y61.360 E4.21705 ; skirt
G1 X97.970 Y61.520 E4.22035 ; skirt
G1 X98.510 Y61.890 E4.22703 ; skirt
G1 X100.450 Y63.380 E4.25200 ; skirt
G1 X100.710 Y63.590 E4.25541 ; skirt
G1 X101.180 Y64.040 E4.26205 ; skirt
G1 X101.610 Y64.540 E4.26879 ; skirt
G1 X103.290 Y66.740 E4.29704 ; skirt
G1 X103.630 Y67.300 E4.30373 ; skirt
G1 X103.920 Y67.890 E4.31044 ; skirt
G1 X104.860 Y70.150 E4.33543 ; skirt
G1 X105.080 Y70.780 E4.34224 ; skirt
G1 X105.230 Y71.420 E4.34895 ; skirt
G1 X105.280 Y71.750 E4.35236 ; skirt
G1 X105.640 Y74.490 E4.38057 ; skirt
G1 X105.660 Y75.150 E4.38731 ; skirt
G1 X105.600 Y75.810 E4.39407 ; skirt
G1 X105.280 Y78.240 E4.41909 ; skirt
G1 X105.230 Y78.570 E4.42250 ; skirt
G1 X105.080 Y79.210 E4.42921 ; skirt
G1 X104.860 Y79.840 E4.43602 ; skirt
G1 X103.920 Y82.100 E4.46101 ; skirt
G1 X103.630 Y82.690 E4.46772 ; skirt
G1 X103.290 Y83.250 E4.47441 ; skirt
G1 X103.100 Y83.510 E4.47769 ; skirt
G1 X101.636 Y85.416 E4.50222 ; skirt
G1 X101.610 Y85.450 E4.50267 ; skirt
G1 F1200.000 E1.00267 ; retract
G92 E0 ; reset extrusion distance
G1 X92.730 Y76.754 F2400.000 ; move to first perimeter point
G1 F1200.000 E3.50000 ; compensate retraction
G1 X91.348 Y77.952 F1200.000 E3.51867 ; perimeter
G1 X89.538 Y78.212 E3.53733 ; perimeter
G1 X87.875 Y77.452 E3.55600 ; perimeter
G1 X86.886 Y75.914 E3.57466 ; perimeter
G1 X86.886 Y74.086 E3.59333 ; perimeter
G1 X87.875 Y72.548 E3.61199 ; perimeter
G1 X89.538 Y71.788 E3.63066 ; perimeter
G1 X91.348 Y72.048 E3.64932 ; perimeter
G1 X92.730 Y73.246 E3.66799 ; perimeter
G1 X93.245 Y75.000 E3.68665 ; perimeter
G1 X92.742 Y76.713 E3.70488 ; perimeter
G1 X92.730 Y76.754 E3.70532 ; perimeter
G1 X92.477 Y76.592 F2400.000 ; move to first perimeter point
G1 X91.223 Y77.678 F1200.000 E3.72226 ; perimeter
G1 X89.581 Y77.914 E3.73919 ; perimeter
G1 X88.072 Y77.225 E3.75613 ; perimeter
G1 X87.175 Y75.829 E3.77306 ; perimeter
G1 X87.175 Y74.171 E3.79000 ; perimeter
G1 X88.072 Y72.775 E3.80693 ; perimeter
G1 X89.581 Y72.086 E3.82387 ; perimeter
G1 X91.223 Y72.322 E3.84080 ; perimeter
G1 X92.477 Y73.408 E3.85774 ; perimeter
G1 X92.944 Y75.000 E3.87467 ; perimeter
G1 X92.489 Y76.550 E3.89117 ; perimeter
G1 X92.477 Y76.592 E3.89161 ; perimeter
G1 X92.584 Y76.860 F2400.000 ; move inwards before travel
G1 F1200.000 E0.39161 ; retract
G92 E0 ; reset extrusion distance
G1 X93.986 Y78.314 F2400.000 ; move to first perimeter point
G1 F1200.000 E3.50000 ; compensate retraction
G1 X93.986 Y71.686 F1200.000 E3.56765 ; perimeter
G1 X97.614 Y71.686 E3.60468 ; perimeter
G1 X97.614 Y78.314 E3.67233 ; perimeter
G1 X94.030 Y78.314 E3.70892 ; perimeter
G1 X93.986 Y78.314 E3.70936 ; perimeter
G1 X94.275 Y78.025 F2400.000 ; move to first perimeter point
G1 X94.275 Y71.975 F1200.000 E3.77112 ; perimeter
G1 X97.325 Y71.975 E3.80225 ; perimeter
G1 X97.325 Y78.025 E3.86401 ; perimeter
G1 X94.318 Y78.025 E3.89471 ; perimeter
G1 X94.275 Y78.025 E3.89515 ; perimeter
G1 X93.986 Y78.025 F2400.000 ; move inwards before travel
G1 F1200.000 E0.39515 ; retract
G92 E0 ; reset extrusion distance
G1 X96.217 Y68.783 F2400.000 ; move to first perimeter point
G1 F1200.000 E3.50000 ; compensate retraction
G1 X97.614 Y70.604 F1680.000 E3.52343 ; perimeter
G1 X97.943 Y71.398 E3.53220 ; perimeter
G1 X93.698 Y71.398 E3.57553 ; perimeter
G1 X93.698 Y74.889 E3.61116 ; perimeter
G1 X93.521 Y74.914 E3.61299 ; perimeter
G1 X92.983 Y73.083 E3.63247 ; perimeter
G1 X91.473 Y71.775 E3.65287 ; perimeter
G1 X89.495 Y71.490 E3.67326 ; perimeter
G1 X87.678 Y72.320 E3.69366 ; perimeter
G1 X86.598 Y74.001 E3.71405 ; perimeter
G1 X86.598 Y75.999 E3.73445 ; perimeter
G1 X87.678 Y77.680 E3.75485 ; perimeter
G1 X89.495 Y78.510 E3.77524 ; perimeter
G1 X91.473 Y78.225 E3.79564 ; perimeter
G1 X92.983 Y76.917 E3.81603 ; perimeter
G1 X93.521 Y75.086 E3.83551 ; perimeter
G1 X93.698 Y75.111 E3.83734 ; perimeter
G1 X93.698 Y78.602 E3.87297 ; perimeter
G1 X97.943 Y78.602 E3.91631 ; perimeter
G1 X97.614 Y79.396 E3.92507 ; perimeter
G1 X96.217 Y81.217 E3.94850 ; perimeter
G1 X94.396 Y82.614 E3.97193 ; perimeter
G1 X92.275 Y83.492 E3.99536 ; perimeter
G1 X90.000 Y83.792 E4.01879 ; perimeter
G1 X87.725 Y83.492 E4.04222 ; perimeter
G1 X85.604 Y82.614 E4.06565 ; perimeter
G1 X83.783 Y81.217 E4.08907 ; perimeter
G1 X82.386 Y79.396 E4.11250 ; perimeter
G1 X81.508 Y77.275 E4.13593 ; perimeter
G1 X81.208 Y75.000 E4.15936 ; perimeter
G1 X81.508 Y72.725 E4.18279 ; perimeter
G1 X82.386 Y70.604 E4.20622 ; perimeter
G1 X83.783 Y68.783 E4.22965 ; perimeter
G1 X85.604 Y67.386 E4.25307 ; perimeter
G1 X87.725 Y66.508 E4.27650 ; perimeter
G1 X90.000 Y66.208 E4.29993 ; perimeter
G1 X92.275 Y66.508 E4.32336 ; perimeter
G1 X94.396 Y67.386 E4.34679 ; perimeter
G1 X96.182 Y68.757 E4.36978 ; perimeter
G1 X96.217 Y68.783 E4.37022 ; perimeter
G1 F1200.000 E0.87022 ; retract
G92 E0 ; reset extrusion distance
G1 X97.902 Y71.671 F2400.000 ; move to first perimeter point
G1 F1200.000 E3.50000 ; compensate retraction
G1 X98.044 Y71.643 F1200.000 E3.50147 ; perimeter
G1 X98.492 Y72.725 E3.51343 ; perimeter
G1 X98.792 Y75.000 E3.53686 ; perimeter
G1 X98.492 Y77.275 E3.56029 ; perimeter
G1 X98.044 Y78.357 E3.57224 ; perimeter
G1 X97.902 Y78.329 E3.57372 ; perimeter
G1 X97.902 Y71.714 E3.64125 ; perimeter
G1 X97.902 Y71.671 E3.64169 ; perimeter
G1 F1200.000 E0.14169 ; retract
G92 E0 ; reset extrusion distance
G1 X97.866 Y70.459 F2400.000 ; move to first perimeter point
G1 F1200.000 E3.50000 ; compensate retraction
G1 X98.773 Y72.649 F1680.000 E3.52420 ; perimeter
G1 X99.083 Y75.000 E3.54841 ; perimeter
G1 X98.773 Y77.351 E3.57261 ; perimeter
G1 X97.866 Y79.541 E3.59682 ; perimeter
G1 X96.423 Y81.423 E3.62102 ; perimeter
G1 X94.541 Y82.866 E3.64523 ; perimeter
G1 X92.351 Y83.773 E3.66943 ; perimeter
G1 X90.000 Y84.083 E3.69364 ; perimeter
G1 X87.649 Y83.773 E3.71784 ; perimeter
G1 X85.459 Y82.866 E3.74204 ; perimeter
G1 X83.577 Y81.423 E3.76625 ; perimeter
G1 X82.134 Y79.541 E3.79045 ; perimeter
G1 X81.227 Y77.351 E3.81466 ; perimeter
G1 X80.917 Y75.000 E3.83886 ; perimeter
G1 X81.227 Y72.649 E3.86307 ; perimeter
G1 X82.134 Y70.459 E3.88727 ; perimeter
G1 X83.577 Y68.577 E3.91147 ; perimeter
G1 X85.459 Y67.134 E3.93568 ; perimeter
G1 X87.649 Y66.227 E3.95988 ; perimeter
G1 X90.000 Y65.917 E3.98409 ; perimeter
G1 X92.351 Y66.227 E4.00829 ; perimeter
G1 X94.541 Y67.134 E4.03250 ; perimeter
G1 X96.423 Y68.577 E4.05670 ; perimeter
G1 X97.840 Y70.424 E4.08046 ; perimeter
G1 X97.866 Y70.459 E4.08091 ; perimeter
G1 X98.118 Y70.313 F2400.000 ; move to first perimeter point
G1 X99.055 Y72.574 F1344.000 E4.10589 ; perimeter
G1 X99.065 Y72.651 E4.10668 ; perimeter
G1 X99.374 Y75.000 E4.13087 ; perimeter
G1 X99.055 Y77.426 E4.15585 ; perimeter
G1 X98.118 Y79.687 E4.18083 ; perimeter
G1 X96.628 Y81.628 E4.20581 ; perimeter
G1 X94.687 Y83.118 E4.23079 ; perimeter
G1 X92.426 Y84.055 E4.25577 ; perimeter
G1 X90.000 Y84.374 E4.28075 ; perimeter
G1 X87.574 Y84.055 E4.30573 ; perimeter
G1 X85.313 Y83.118 E4.33071 ; perimeter
G1 X83.372 Y81.628 E4.35569 ; perimeter
G1 X81.882 Y79.687 E4.38067 ; perimeter
G1 X80.945 Y77.426 E4.40565 ; perimeter
G1 X80.626 Y75.000 E4.43063 ; perimeter
G1 X80.945 Y72.574 E4.45561 ; perimeter
G1 X81.882 Y70.313 E4.48059 ; perimeter
G1 X83.372 Y68.372 E4.50557 ; perimeter
G1 X85.313 Y66.882 E4.53055 ; perimeter
G1 X87.574 Y65.945 E4.55553 ; perimeter
G1 X90.000 Y65.626 E4.58051 ; perimeter
G1 X92.426 Y65.945 E4.60549 ; perimeter
G1 X94.687 Y66.882 E4.63047 ; perimeter
G1 X96.628 Y68.372 E4.65545 ; perimeter
G1 X98.092 Y70.279 E4.67999 ; perimeter
G1 X98.118 Y70.313 E4.68043 ; perimeter
G1 X97.963 Y70.556 F2400.000 ; move inwards before travel
G1 X97.457 Y70.850 ; move to first fill point
G1 X94.150 Y67.543 F1440.000 E4.72892 ; fill
G1 X93.442 Y67.250 E4.73686 ; fill
G1 X97.394 Y71.201 E4.79479 ; fill
G1 X96.979 Y71.201 E4.79909 ; fill
G1 X92.735 Y66.957 E4.86132 ; fill
G1 X92.053 Y66.690 E4.86890 ; fill
G1 X96.565 Y71.201 E4.93504 ; fill
G1 X96.150 Y71.201 E4.93934 ; fill
G1 X91.576 Y66.627 E5.00640 ; fill
G1 X91.099 Y66.564 E5.01139 ; fill
G1 X95.736 Y71.201 E5.07938 ; fill
G1 X95.321 Y71.201 E5.08367 ; fill
G1 X90.621 Y66.501 E5.15258 ; fill
G1 X90.144 Y66.439 E5.15757 ; fill
G1 X94.906 Y71.201 E5.22740 ; fill
G1 X94.492 Y71.201 E5.23169 ; fill
G1 X89.723 Y66.432 E5.30162 ; fill
G1 X89.356 Y66.480 E5.30545 ; fill
G1 X94.077 Y71.201 E5.37466 ; fill
G1 X93.663 Y71.201 E5.37896 ; fill
G1 X88.990 Y66.528 E5.44747 ; fill
G1 F1200.000 E1.94747 ; retract
G92 E0 ; reset extrusion distance
G1 X87.268 Y66.879 F2400.000 ; move to first fill point
G1 F1200.000 E3.50000 ; compensate retraction
G1 X93.501 Y73.112 F1440.000 E3.59138 ; fill
G1 X93.501 Y72.697 E3.59568 ; fill
G1 X87.561 Y66.758 E3.68276 ; fill
G1 X87.891 Y66.673 E3.68629 ; fill
G1 X93.501 Y72.283 E3.76854 ; fill
G1 X93.501 Y71.868 E3.77284 ; fill
G1 X88.257 Y66.625 E3.84972 ; fill
G1 X88.624 Y66.577 E3.85355 ; fill
G1 X93.501 Y71.454 E3.92505 ; fill
G1 F1200.000 E0.42505 ; retract
G92 E0 ; reset extrusion distance
G1 X91.547 Y71.572 F2400.000 ; move to first fill point
G1 F1200.000 E3.50000 ; compensate retraction
G1 X86.975 Y67.001 F1440.000 E3.56703 ; fill
G1 X86.682 Y67.122 E3.57031 ; fill
G1 X91.063 Y71.503 E3.63454 ; fill
G1 X90.579 Y71.433 E3.63961 ; fill
G1 X86.389 Y67.243 E3.70104 ; fill
G1 X86.096 Y67.365 E3.70433 ; fill
G1 X90.094 Y71.363 E3.76295 ; fill
G1 X89.610 Y71.294 E3.76802 ; fill
G1 X85.803 Y67.486 E3.82384 ; fill
G1 X85.539 Y67.637 E3.82699 ; fill
G1 X89.299 Y71.397 E3.88211 ; fill
G1 X89.014 Y71.527 E3.88535 ; fill
G1 X85.305 Y67.817 E3.93973 ; fill
G1 X85.070 Y67.997 E3.94280 ; fill
G1 X88.729 Y71.657 E3.99645 ; fill
G1 X88.445 Y71.787 E3.99969 ; fill
G1 X84.835 Y68.177 E4.05261 ; fill
G1 X84.601 Y68.357 E4.05567 ; fill
G1 X88.160 Y71.917 E4.10786 ; fill
G1 X87.876 Y72.046 E4.11110 ; fill
G1 X84.366 Y68.537 E4.16255 ; fill
G1 X84.132 Y68.717 E4.16562 ; fill
G1 X87.591 Y72.176 E4.21633 ; fill
G1 X87.421 Y72.421 E4.21942 ; fill
G1 X83.897 Y68.897 E4.27108 ; fill
G1 X83.717 Y69.132 E4.27415 ; fill
G1 X87.259 Y72.673 E4.32607 ; fill
G1 X87.097 Y72.926 E4.32918 ; fill
G1 X83.537 Y69.366 E4.38137 ; fill
G1 X83.357 Y69.601 E4.38443 ; fill
G1 X86.935 Y73.178 E4.43688 ; fill
G1 X86.772 Y73.430 E4.43999 ; fill
G1 X83.177 Y69.836 E4.49269 ; fill
G1 X82.997 Y70.070 E4.49576 ; fill
G1 X86.610 Y73.683 E4.54873 ; fill
G1 X86.448 Y73.935 E4.55184 ; fill
G1 X82.817 Y70.305 E4.60507 ; fill
G1 X82.637 Y70.539 E4.60813 ; fill
G1 X86.401 Y74.303 E4.66331 ; fill
G1 X86.401 Y74.717 E4.66761 ; fill
G1 X82.486 Y70.803 E4.72500 ; fill
G1 X82.365 Y71.096 E4.72829 ; fill
G1 X86.401 Y75.132 E4.78747 ; fill
G1 X86.401 Y75.546 E4.79176 ; fill
G1 X82.244 Y71.389 E4.85272 ; fill
G1 X82.122 Y71.682 E4.85601 ; fill
G1 X86.401 Y75.961 E4.91874 ; fill
G1 X86.761 Y76.735 E4.92759 ; fill
G1 X82.001 Y71.975 E4.99738 ; fill
G1 X81.879 Y72.268 E5.00067 ; fill
G1 X87.506 Y77.895 E5.08317 ; fill
G1 X87.457 Y77.846 F2400.000 ; move to first fill point
G1 X92.732 Y83.121 F1440.000 E5.16050 ; fill
G1 X92.439 Y83.242 E5.16378 ; fill
G1 X81.758 Y72.561 E5.32038 ; fill
G1 X81.673 Y72.891 E5.32391 ; fill
G1 X92.109 Y83.327 E5.47691 ; fill
G1 X91.743 Y83.375 E5.48074 ; fill
G1 X81.625 Y73.257 E5.62908 ; fill
G1 X81.577 Y73.624 E5.63291 ; fill
G1 X91.376 Y83.423 E5.77659 ; fill
G1 X91.010 Y83.472 E5.78042 ; fill
G1 X81.528 Y73.990 E5.91943 ; fill
G1 X81.480 Y74.356 E5.92326 ; fill
G1 X90.644 Y83.520 E6.05761 ; fill
G1 X90.277 Y83.568 E6.06144 ; fill
G1 X81.432 Y74.723 E6.19113 ; fill
G1 X81.438 Y75.144 E6.19549 ; fill
G1 X89.856 Y83.561 E6.31891 ; fill
G1 X89.379 Y83.499 E6.32390 ; fill
G1 X81.501 Y75.621 E6.43939 ; fill
G1 X81.564 Y76.099 E6.44438 ; fill
G1 X88.901 Y83.436 E6.55196 ; fill
G1 X88.424 Y83.373 E6.55695 ; fill
G1 X81.627 Y76.576 E6.65660 ; fill
G1 X81.690 Y77.053 E6.66159 ; fill
G1 X87.947 Y83.310 E6.75332 ; fill
G1 X87.265 Y83.043 E6.76091 ; fill
G1 X81.957 Y77.735 E6.83874 ; fill
G1 X82.250 Y78.442 E6.84669 ; fill
G1 X86.558 Y82.750 E6.90985 ; fill
G1 X85.850 Y82.457 E6.91779 ; fill
G1 X82.543 Y79.150 E6.96628 ; fill
G1 F1200.000 E3.46628 ; retract
G92 E0 ; reset extrusion distance
G1 X83.897 Y80.918 F2400.000 ; move to first fill point
G1 F1200.000 E3.50000 ; compensate retraction
G1 X84.082 Y81.103 F1440.000 E3.50271 ; fill
G1 F1200.000 E0.00271 ; retract
G92 E0 ; reset extrusion distance
G1 X88.220 Y78.195 F2400.000 ; move to first fill point
G1 F1200.000 E3.50000 ; compensate retraction
G1 X93.025 Y82.999 F1440.000 E3.57044 ; fill
G1 X93.318 Y82.878 E3.57373 ; fill
G1 X88.983 Y78.543 E3.63728 ; fill
G1 X89.544 Y78.689 E3.64329 ; fill
G1 X93.611 Y82.756 E3.70292 ; fill
G1 X93.904 Y82.635 E3.70621 ; fill
G1 X89.906 Y78.637 E3.76482 ; fill
G1 X90.269 Y78.585 E3.76862 ; fill
G1 X94.197 Y82.514 E3.82622 ; fill
G1 X94.461 Y82.363 E3.82937 ; fill
G1 X90.631 Y78.533 E3.88551 ; fill
G1 X90.994 Y78.481 E3.88931 ; fill
G1 X94.695 Y82.183 E3.94358 ; fill
G1 X94.930 Y82.003 E3.94665 ; fill
G1 X91.356 Y78.429 E3.99904 ; fill
G1 X91.636 Y78.294 F2400.000 ; move to first fill point
G1 X95.164 Y81.823 F1440.000 E4.05077 ; fill
