; generated by Slic3r 0.9.8 on 2013-04-24 at 20:23:20

; layer_height = 0.3
; perimeters = 3
; top_solid_layers = 3
; bottom_solid_layers = 3
; fill_density = 0.3
; perimeter_speed = 45
; infill_speed = 40
; travel_speed = 45
; scale = 1
; nozzle_diameter = 0.5
; filament_diameter = 3
; extrusion_multiplier = 1.00
; perimeters extrusion width = 0.50mm
; infill extrusion width = 0.50mm
; first layer extrusion width = 0.30mm

M107 ; disable fan
M104 S230 ; set temperature
G28 ; home all axes
M109 S230 ; wait for temperature to be reached
G90 ; use absolute coordinates
G21 ; set units to millimeters
G92 E0 ; reset extrusion distance
M82 ; use absolute distances for extrusion
G1 F1200.000 E-3.00000 ; retract
G92 E0 ; reset extrusion distance
G1 Z0.300 F2700.000 ; move to next layer (0)
G1 X126.570 Y105.900 ; move to first skirt point
G1 F1200.000 E3.00000 ; compensate retraction
G1 X102.850 Y119.920 F2160.000 E3.40101 ; skirt
G1 X102.080 Y120.310 E3.41358 ; skirt
G1 X101.390 Y120.600 E3.42447 ; skirt
G1 X100.730 Y120.830 E3.43464 ; skirt
G1 X100.390 Y120.920 E3.43976 ; skirt
G1 X99.700 Y121.050 E3.44998 ; skirt
G1 X98.960 Y121.140 E3.46083 ; skirt
G1 X98.190 Y121.180 E3.47205 ; skirt
G1 X80.200 Y121.180 E3.73388 ; skirt
G1 X79.430 Y121.140 E3.74510 ; skirt
G1 X78.690 Y121.050 E3.75595 ; skirt
G1 X78.000 Y120.920 E3.76617 ; skirt
G1 X77.660 Y120.830 E3.77129 ; skirt
G1 X77.000 Y120.600 E3.78146 ; skirt
G1 X76.020 Y120.180 E3.79698 ; skirt
G1 X75.450 Y119.870 E3.80642 ; skirt
G1 X75.180 Y119.690 E3.81114 ; skirt
G1 X74.330 Y119.050 E3.82663 ; skirt
G1 X73.820 Y118.610 E3.83643 ; skirt
G1 X73.350 Y118.120 E3.84631 ; skirt
G1 X73.140 Y117.860 E3.85118 ; skirt
G1 X72.500 Y117.020 E3.86655 ; skirt
G1 X72.330 Y116.760 E3.87107 ; skirt
G1 X72.030 Y116.210 E3.88018 ; skirt
G1 X71.900 Y115.930 E3.88468 ; skirt
G1 X71.510 Y115.010 E3.89922 ; skirt
G1 X71.330 Y114.440 E3.90792 ; skirt
G1 X71.200 Y113.870 E3.91643 ; skirt
G1 X71.160 Y113.580 E3.92069 ; skirt
G1 X71.060 Y112.800 E3.93213 ; skirt
G1 X71.010 Y111.990 E3.94395 ; skirt
G1 X71.010 Y99.750 E4.12209 ; skirt
G1 X71.590 Y84.900 E4.33838 ; skirt
G1 X71.630 Y84.380 E4.34597 ; skirt
G1 X71.780 Y83.610 E4.35739 ; skirt
G1 X72.020 Y82.850 E4.36899 ; skirt
G1 X72.230 Y82.370 E4.37661 ; skirt
G1 X72.610 Y81.690 E4.38795 ; skirt
G1 X73.080 Y81.060 E4.39939 ; skirt
G1 X73.440 Y80.670 E4.40711 ; skirt
G1 X73.830 Y80.310 E4.41484 ; skirt
G1 X74.460 Y79.840 E4.42628 ; skirt
G1 X75.140 Y79.450 E4.43768 ; skirt
G1 X75.870 Y79.150 E4.44917 ; skirt
G1 X76.370 Y79.000 E4.45677 ; skirt
G1 X76.880 Y78.890 E4.46436 ; skirt
G1 X77.670 Y78.810 E4.47592 ; skirt
G1 X123.600 Y78.810 E5.14438 ; skirt
G1 X124.380 Y78.890 E5.15579 ; skirt
G1 X124.900 Y79.000 E5.16353 ; skirt
G1 X125.650 Y79.240 E5.17499 ; skirt
G1 X126.130 Y79.450 E5.18262 ; skirt
G1 X126.590 Y79.700 E5.19024 ; skirt
G1 X127.030 Y79.990 E5.19791 ; skirt
G1 X127.240 Y80.140 E5.20166 ; skirt
G1 X127.640 Y80.480 E5.20930 ; skirt
G1 X128.010 Y80.850 E5.21692 ; skirt
G1 X128.350 Y81.250 E5.22456 ; skirt
G1 X128.650 Y81.680 E5.23219 ; skirt
G1 X129.040 Y82.360 E5.24360 ; skirt
G1 X129.340 Y83.090 E5.25508 ; skirt
G1 X129.490 Y83.590 E5.26268 ; skirt
G1 X129.600 Y84.110 E5.27042 ; skirt
G1 X129.680 Y84.890 E5.28183 ; skirt
G1 X129.680 Y100.700 E5.51193 ; skirt
G1 X129.600 Y101.490 E5.52348 ; skirt
G1 X129.420 Y102.260 E5.53499 ; skirt
G1 X129.250 Y102.750 E5.54254 ; skirt
G1 X129.150 Y103.000 E5.54646 ; skirt
G1 X128.910 Y103.470 E5.55414 ; skirt
G1 X128.640 Y103.920 E5.56178 ; skirt
G1 X128.340 Y104.350 E5.56941 ; skirt
G1 X128.000 Y104.750 E5.57705 ; skirt
G1 X127.810 Y104.940 E5.58096 ; skirt
G1 X127.220 Y105.460 E5.59241 ; skirt
G1 X126.613 Y105.872 E5.60308 ; skirt
G1 X126.570 Y105.900 E5.60383 ; skirt
G1 F1200.000 E2.60383 ; retract
G92 E0 ; reset extrusion distance
G1 X98.145 Y97.836 F2700.000 ; move to first perimeter point
G1 F1200.000 E3.00000 ; compensate retraction
G1 X98.758 Y97.917 F2160.000 E3.00900 ; perimeter
G1 X99.278 Y98.132 E3.01719 ; perimeter
G1 X99.725 Y98.475 E3.02539 ; perimeter
G1 X100.068 Y98.922 E3.03358 ; perimeter
G1 X100.283 Y99.442 E3.04178 ; perimeter
G1 X100.364 Y100.055 E3.05078 ; perimeter
G1 X100.364 Y111.814 E3.22192 ; perimeter
G1 X100.381 Y111.814 E3.22217 ; perimeter
G1 X100.283 Y112.558 E3.23310 ; perimeter
G1 X100.068 Y113.078 E3.24129 ; perimeter
G1 X99.725 Y113.525 E3.24949 ; perimeter
G1 X99.278 Y113.868 E3.25769 ; perimeter
G1 X98.758 Y114.083 E3.26588 ; perimeter
G1 X98.145 Y114.164 E3.27488 ; perimeter
G1 X80.255 Y114.164 E3.53526 ; perimeter
G1 X79.642 Y114.083 E3.54426 ; perimeter
G1 X79.122 Y113.868 E3.55245 ; perimeter
G1 X78.675 Y113.525 E3.56065 ; perimeter
G1 X78.332 Y113.078 E3.56884 ; perimeter
G1 X78.117 Y112.558 E3.57704 ; perimeter
G1 X78.036 Y111.945 E3.58603 ; perimeter
G1 X78.036 Y100.055 E3.75909 ; perimeter
G1 X78.117 Y99.442 E3.76809 ; perimeter
G1 X78.332 Y98.922 E3.77628 ; perimeter
G1 X78.675 Y98.475 E3.78448 ; perimeter
G1 X79.122 Y98.132 E3.79267 ; perimeter
G1 X79.642 Y97.917 E3.80087 ; perimeter
G1 X80.255 Y97.836 E3.80987 ; perimeter
G1 X98.094 Y97.836 E4.06950 ; perimeter
G1 X98.145 Y97.836 E4.07024 ; perimeter
G1 X98.168 Y97.493 F2700.000 ; move to first perimeter point
G1 X98.848 Y97.582 F2160.000 E4.08023 ; perimeter
G1 X99.451 Y97.832 E4.08974 ; perimeter
G1 X99.970 Y98.230 E4.09925 ; perimeter
G1 X100.368 Y98.749 E4.10876 ; perimeter
G1 X100.618 Y99.352 E4.11826 ; perimeter
G1 X100.707 Y100.032 E4.12825 ; perimeter
G1 X100.707 Y111.968 E4.30196 ; perimeter
G1 X100.618 Y112.648 E4.31194 ; perimeter
G1 X100.368 Y113.251 E4.32145 ; perimeter
G1 X99.970 Y113.770 E4.33096 ; perimeter
G1 X99.451 Y114.168 E4.34047 ; perimeter
G1 X98.848 Y114.418 E4.34998 ; perimeter
G1 X98.168 Y114.507 E4.35996 ; perimeter
G1 X80.232 Y114.507 E4.62099 ; perimeter
G1 X79.552 Y114.418 E4.63097 ; perimeter
G1 X78.949 Y114.168 E4.64048 ; perimeter
G1 X78.430 Y113.770 E4.64999 ; perimeter
G1 X78.032 Y113.251 E4.65950 ; perimeter
G1 X77.782 Y112.648 E4.66901 ; perimeter
G1 X77.693 Y111.968 E4.67899 ; perimeter
G1 X77.693 Y100.032 E4.85270 ; perimeter
G1 X77.782 Y99.352 E4.86269 ; perimeter
G1 X78.032 Y98.749 E4.87219 ; perimeter
G1 X78.430 Y98.230 E4.88170 ; perimeter
G1 X78.949 Y97.832 E4.89121 ; perimeter
G1 X79.552 Y97.582 E4.90072 ; perimeter
G1 X80.232 Y97.493 E4.91070 ; perimeter
G1 X98.116 Y97.493 E5.17099 ; perimeter
G1 X98.168 Y97.493 E5.17174 ; perimeter
G1 X98.190 Y97.150 F2700.000 ; move to first perimeter point
G1 X98.937 Y97.248 F1728.000 E5.18270 ; perimeter
G1 X99.624 Y97.533 E5.19353 ; perimeter
G1 X100.214 Y97.986 E5.20435 ; perimeter
G1 X100.667 Y98.576 E5.21517 ; perimeter
G1 X100.952 Y99.263 E5.22600 ; perimeter
G1 X101.050 Y100.010 E5.23696 ; perimeter
G1 X101.050 Y111.990 E5.41133 ; perimeter
G1 X100.952 Y112.737 E5.42229 ; perimeter
G1 X100.667 Y113.424 E5.43312 ; perimeter
G1 X100.214 Y114.014 E5.44394 ; perimeter
G1 X99.624 Y114.467 E5.45476 ; perimeter
G1 X98.937 Y114.752 E5.46559 ; perimeter
G1 X98.190 Y114.850 E5.47655 ; perimeter
G1 X80.210 Y114.850 E5.73824 ; perimeter
G1 X79.463 Y114.752 E5.74921 ; perimeter
G1 X78.776 Y114.467 E5.76003 ; perimeter
G1 X78.186 Y114.014 E5.77085 ; perimeter
G1 X77.733 Y113.424 E5.78168 ; perimeter
G1 X77.453 Y112.771 E5.79203 ; perimeter
G1 X77.350 Y111.990 E5.80349 ; perimeter
G1 X77.350 Y100.010 E5.97785 ; perimeter
G1 X77.448 Y99.263 E5.98882 ; perimeter
G1 X77.733 Y98.576 E5.99964 ; perimeter
G1 X78.186 Y97.986 E6.01046 ; perimeter
G1 X78.776 Y97.533 E6.02129 ; perimeter
G1 X79.463 Y97.248 E6.03211 ; perimeter
G1 X80.210 Y97.150 E6.04308 ; perimeter
G1 X98.139 Y97.150 E6.30401 ; perimeter
G1 X98.190 Y97.150 E6.30476 ; perimeter
G1 X98.335 Y97.461 F2700.000 ; move inwards before travel
G1 F1200.000 E3.30476 ; retract
G92 E0 ; reset extrusion distance
G1 X99.664 Y91.029 F2700.000 ; move to first perimeter point
G1 F1200.000 E3.00000 ; compensate retraction
G1 X99.664 Y88.164 F1680.000 E3.04170 ; perimeter
G1 X102.654 Y88.164 E3.08521 ; perimeter
G1 X101.027 Y91.356 E3.13735 ; perimeter
G1 X99.714 Y91.041 E3.15700 ; perimeter
G1 X99.664 Y91.029 E3.15775 ; perimeter
G1 X100.007 Y90.759 F2700.000 ; move to first perimeter point
G1 X100.007 Y88.507 F1680.000 E3.19052 ; perimeter
G1 X102.094 Y88.507 E3.22090 ; perimeter
G1 X100.845 Y90.960 E3.26096 ; perimeter
G1 X100.057 Y90.771 E3.27275 ; perimeter
G1 X100.007 Y90.759 E3.27349 ; perimeter
G1 X100.350 Y90.488 F2700.000 ; move to first perimeter point
G1 X100.350 Y88.850 F1680.000 E3.29734 ; perimeter
G1 X101.535 Y88.850 E3.31458 ; perimeter
G1 X100.662 Y90.563 E3.34256 ; perimeter
G1 X100.400 Y90.500 E3.34648 ; perimeter
G1 X100.350 Y90.488 E3.34723 ; perimeter
G1 X100.008 Y90.461 F2700.000 ; move inwards before travel
G1 F1200.000 E0.34723 ; retract
G92 E0 ; reset extrusion distance
G1 X122.664 Y99.764 F2700.000 ; move to first perimeter point
G1 F1200.000 E3.00000 ; compensate retraction
G1 X119.334 Y99.764 F2160.000 E3.04847 ; perimeter
G1 X119.334 Y101.664 E3.07612 ; perimeter
G1 X115.066 Y101.664 E3.13824 ; perimeter
G1 X115.066 Y99.764 E3.16589 ; perimeter
G1 X108.066 Y99.764 E3.26777 ; perimeter
G1 X105.851 Y99.413 E3.30040 ; perimeter
G1 X103.913 Y98.426 E3.33207 ; perimeter
G1 X102.374 Y96.887 E3.36373 ; perimeter
G1 X101.387 Y94.949 E3.39539 ; perimeter
G1 X101.104 Y93.164 E3.42169 ; perimeter
G1 X96.336 Y93.164 E3.49109 ; perimeter
G1 X96.336 Y88.164 E3.56386 ; perimeter
G1 X80.664 Y88.164 E3.79194 ; perimeter
G1 X80.664 Y93.164 E3.86471 ; perimeter
G1 X78.621 Y93.164 E3.89445 ; perimeter
G1 X78.621 Y85.836 E4.00111 ; perimeter
G1 X122.664 Y85.836 E4.64212 ; perimeter
G1 X122.664 Y88.214 E4.67673 ; perimeter
G1 X110.730 Y88.214 E4.85043 ; perimeter
G1 X110.674 Y88.168 E4.85148 ; perimeter
G1 X108.929 Y87.533 E4.87851 ; perimeter
G1 X107.071 Y87.533 E4.90555 ; perimeter
G1 X105.326 Y88.168 E4.93258 ; perimeter
G1 X103.903 Y89.362 E4.95962 ; perimeter
G1 X102.974 Y90.971 E4.98666 ; perimeter
G1 X102.651 Y92.800 E5.01369 ; perimeter
G1 X102.974 Y94.629 E5.04073 ; perimeter
G1 X103.903 Y96.238 E5.06776 ; perimeter
G1 X105.326 Y97.432 E5.09480 ; perimeter
G1 X107.071 Y98.067 E5.12183 ; perimeter
G1 X108.929 Y98.067 E5.14887 ; perimeter
G1 X110.674 Y97.432 E5.17590 ; perimeter
G1 X110.730 Y97.386 E5.17695 ; perimeter
G1 X122.664 Y97.386 E5.35065 ; perimeter
G1 X122.664 Y99.713 E5.38451 ; perimeter
G1 X122.664 Y99.764 E5.38526 ; perimeter
G1 X123.007 Y100.107 F2700.000 ; move to first perimeter point
G1 X119.677 Y100.107 F2160.000 E5.43373 ; perimeter
G1 X119.677 Y102.007 E5.46138 ; perimeter
G1 X114.723 Y102.007 E5.53348 ; perimeter
G1 X114.723 Y100.107 E5.56113 ; perimeter
G1 X108.039 Y100.107 E5.65841 ; perimeter
G1 X105.744 Y99.744 E5.69223 ; perimeter
G1 X103.709 Y98.707 E5.72548 ; perimeter
G1 X102.093 Y97.091 E5.75872 ; perimeter
G1 X101.056 Y95.056 E5.79197 ; perimeter
G1 X100.811 Y93.507 E5.81479 ; perimeter
G1 X95.993 Y93.507 E5.88491 ; perimeter
G1 X95.993 Y88.507 E5.95768 ; perimeter
G1 X81.007 Y88.507 E6.17579 ; perimeter
G1 X81.007 Y93.507 E6.24856 ; perimeter
G1 X78.278 Y93.507 E6.28828 ; perimeter
G1 X78.278 Y85.493 E6.40492 ; perimeter
G1 X123.007 Y85.493 E7.05591 ; perimeter
G1 X123.007 Y88.557 E7.10051 ; perimeter
G1 X110.605 Y88.557 E7.28101 ; perimeter
G1 X110.500 Y88.469 E7.28299 ; perimeter
G1 X108.868 Y87.875 E7.30827 ; perimeter
G1 X107.132 Y87.875 E7.33354 ; perimeter
G1 X105.500 Y88.469 E7.35882 ; perimeter
G1 X104.169 Y89.586 E7.38410 ; perimeter
G1 X103.301 Y91.090 E7.40937 ; perimeter
G1 X102.999 Y92.800 E7.43465 ; perimeter
G1 X103.301 Y94.510 E7.45992 ; perimeter
G1 X104.169 Y96.014 E7.48520 ; perimeter
G1 X105.500 Y97.131 E7.51047 ; perimeter
G1 X107.132 Y97.725 E7.53575 ; perimeter
G1 X108.868 Y97.725 E7.56102 ; perimeter
G1 X110.500 Y97.131 E7.58630 ; perimeter
G1 X110.605 Y97.043 E7.58828 ; perimeter
G1 X123.007 Y97.043 E7.76879 ; perimeter
G1 X123.007 Y100.056 E7.81263 ; perimeter
G1 X123.007 Y100.107 E7.81338 ; perimeter
G1 X123.350 Y100.450 F2700.000 ; move to first perimeter point
G1 X120.020 Y100.450 F1728.000 E7.86185 ; perimeter
G1 X120.020 Y102.350 E7.88950 ; perimeter
G1 X114.380 Y102.350 E7.97158 ; perimeter
G1 X114.380 Y100.450 E7.99924 ; perimeter
G1 X108.012 Y100.450 E8.09192 ; perimeter
G1 X105.637 Y100.074 E8.12692 ; perimeter
G1 X103.505 Y98.987 E8.16175 ; perimeter
G1 X101.813 Y97.295 E8.19657 ; perimeter
G1 X100.726 Y95.163 E8.23140 ; perimeter
G1 X100.518 Y93.850 E8.25075 ; perimeter
G1 X95.650 Y93.850 E8.32160 ; perimeter
G1 X95.650 Y88.850 E8.39437 ; perimeter
G1 X81.350 Y88.850 E8.60249 ; perimeter
G1 X81.350 Y93.850 E8.67526 ; perimeter
G1 X77.935 Y93.850 E8.72497 ; perimeter
G1 X77.935 Y85.150 E8.85159 ; perimeter
G1 X123.350 Y85.150 E9.51256 ; perimeter
G1 X123.350 Y88.900 E9.56714 ; perimeter
G1 X110.480 Y88.900 E9.75445 ; perimeter
G1 X110.326 Y88.771 E9.75737 ; perimeter
G1 X108.808 Y88.218 E9.78089 ; perimeter
G1 X107.192 Y88.218 E9.80440 ; perimeter
G1 X105.674 Y88.771 E9.82792 ; perimeter
G1 X104.436 Y89.810 E9.85143 ; perimeter
G1 X103.628 Y91.209 E9.87495 ; perimeter
G1 X103.348 Y92.800 E9.89846 ; perimeter
G1 X103.628 Y94.391 E9.92198 ; perimeter
G1 X104.436 Y95.790 E9.94549 ; perimeter
G1 X105.674 Y96.829 E9.96901 ; perimeter
G1 X107.192 Y97.382 E9.99252 ; perimeter
G1 X108.808 Y97.382 E10.01604 ; perimeter
G1 X110.326 Y96.829 E10.03955 ; perimeter
G1 X110.480 Y96.700 E10.04248 ; perimeter
G1 X123.350 Y96.700 E10.22979 ; perimeter
G1 X123.350 Y100.399 E10.28362 ; perimeter
G1 X123.350 Y100.450 E10.28436 ; perimeter
G1 X123.053 Y100.279 F2700.000 ; move inwards before travel
G1 F1200.000 E7.28436 ; retract
G92 E0 ; reset extrusion distance
G1 X83.150 Y89.825 F2700.000 ; move to first perimeter point
G1 F1200.000 E3.00000 ; compensate retraction
G1 X83.150 Y89.254 F1680.000 E3.00831 ; perimeter
G1 X83.088 Y89.179 E3.00973 ; perimeter
G1 X83.150 Y89.254 F2700.000 ; move to first perimeter point
G1 X83.185 Y89.225 F1680.000 E3.01039 ; perimeter
G1 X83.213 Y89.179 E3.01117 ; perimeter
G1 X83.150 Y89.825 F2700.000 ; move to first perimeter point
G1 X83.088 Y90.021 F1680.000 E3.01416 ; perimeter
G1 X83.150 Y89.946 F2700.000 ; move to first perimeter point
G1 X83.213 Y90.021 F1680.000 E3.01558 ; perimeter
G1 F1200.000 E0.01558 ; retract
G92 E0 ; reset extrusion distance
G1 X92.888 Y90.021 F2700.000 ; move to first perimeter point
G1 F1200.000 E3.00000 ; compensate retraction
G1 X92.950 Y89.825 F1680.000 E3.00299 ; perimeter
G1 X92.950 Y89.254 E3.01130 ; perimeter
G1 X92.888 Y89.179 E3.01272 ; perimeter
G1 X92.950 Y89.254 F2700.000 ; move to first perimeter point
G1 X92.985 Y89.225 F1680.000 E3.01338 ; perimeter
G1 X93.013 Y89.179 E3.01416 ; perimeter
G1 X92.950 Y89.946 F2700.000 ; move to first perimeter point
G1 X93.013 Y90.021 F1680.000 E3.01558 ; perimeter
G1 F1200.000 E0.01558 ; retract
G92 E0 ; reset extrusion distance
G1 X99.371 Y98.610 F2700.000 ; move to first fill point
G1 F1200.000 E3.00000 ; compensate retraction
G1 X99.590 Y98.829 F1920.000 E3.00454 ; fill
G1 X100.081 Y99.807 E3.02055 ; fill
G1 X98.393 Y98.119 E3.05549 ; fill
G1 X97.855 Y98.070 E3.06340 ; fill
G1 X100.130 Y100.345 E3.11051 ; fill
G1 X100.130 Y100.833 E3.11765 ; fill
G1 X97.367 Y98.070 E3.17485 ; fill
G1 X96.880 Y98.070 E3.18199 ; fill
G1 X100.130 Y101.320 E3.24930 ; fill
G1 X100.130 Y101.808 E3.25644 ; fill
G1 X96.392 Y98.070 E3.33384 ; fill
G1 X95.904 Y98.070 E3.34098 ; fill
G1 X100.130 Y102.296 E3.42849 ; fill
G1 X100.130 Y102.784 E3.43563 ; fill
G1 X95.416 Y98.070 E3.53323 ; fill
G1 X94.928 Y98.070 E3.54037 ; fill
G1 X100.130 Y103.272 E3.64808 ; fill
G1 X100.130 Y103.759 E3.65522 ; fill
G1 X94.441 Y98.070 E3.77302 ; fill
G1 X93.953 Y98.070 E3.78016 ; fill
G1 X100.130 Y104.247 E3.90806 ; fill
G1 X100.130 Y104.735 E3.91520 ; fill
G1 X93.465 Y98.070 E4.05320 ; fill
G1 X92.977 Y98.070 E4.06035 ; fill
G1 X100.130 Y105.223 E4.20844 ; fill
G1 X100.130 Y105.711 E4.21559 ; fill
G1 X92.489 Y98.070 E4.37379 ; fill
G1 X92.001 Y98.070 E4.38093 ; fill
G1 X100.130 Y106.199 E4.54923 ; fill
