; generated by Slic3r 0.9.8 on 2013-04-06 at 01:27:34

; layer_height = 0.3
; perimeters = 3
; top_solid_layers = 3
; bottom_solid_layers = 3
; fill_density = 0.3
; perimeter_speed = 35
; infill_speed = 30
; travel_speed = 40
; scale = 1
; nozzle_diameter = 0.43
; filament_diameter = 3
; extrusion_multiplier = 1.00
; perimeters extrusion width = 0.50mm
; infill extrusion width = 0.50mm
; support material extrusion width = 0.50mm
; first layer extrusion width = 0.60mm

M107 ; disable fan
M104 S220 ; set temperature
G28 ; home all axes
M109 S220 ; wait for temperature to be reached
G90 ; use absolute coordinates
G21 ; set units to millimeters
G92 E0 ; reset extrusion distance
M82 ; use absolute distances for extrusion
G1 F1200.000 E-3.50000 ; retract
G92 E0 ; reset extrusion distance
G1 Z0.250 F2400.000 ; move to next layer (0)
G1 X129.250 Y35.700 ; move to first skirt point
G1 F1200.000 E3.50000 ; compensate retraction
G1 X130.260 Y100.400 F1680.000 E4.78965 ; skirt
G1 X130.260 Y100.820 E4.79802 ; skirt
G1 X130.190 Y102.260 E4.82676 ; skirt
G1 X130.120 Y102.900 E4.83959 ; skirt
G1 X129.910 Y104.320 E4.86820 ; skirt
G1 X129.790 Y104.950 E4.88098 ; skirt
G1 X129.440 Y106.350 E4.90974 ; skirt
G1 X129.240 Y106.980 E4.92291 ; skirt
G1 X128.750 Y108.340 E4.95172 ; skirt
G1 X128.530 Y108.890 E4.96353 ; skirt
G1 X127.920 Y110.200 E4.99233 ; skirt
G1 X127.590 Y110.830 E5.00651 ; skirt
G1 X126.840 Y112.070 E5.03539 ; skirt
G1 X126.490 Y112.580 E5.04772 ; skirt
G1 X125.630 Y113.740 E5.07650 ; skirt
G1 X125.250 Y114.210 E5.08854 ; skirt
G1 X124.290 Y115.280 E5.11719 ; skirt
G1 X123.780 Y115.790 E5.13157 ; skirt
G1 X122.710 Y116.750 E5.16022 ; skirt
G1 X122.240 Y117.130 E5.17226 ; skirt
G1 X121.080 Y117.990 E5.20104 ; skirt
G1 X120.570 Y118.340 E5.21337 ; skirt
G1 X119.330 Y119.090 E5.24225 ; skirt
G1 X118.700 Y119.420 E5.25643 ; skirt
G1 X117.390 Y120.030 E5.28523 ; skirt
G1 X116.840 Y120.250 E5.29703 ; skirt
G1 X115.480 Y120.740 E5.32585 ; skirt
G1 X114.850 Y120.940 E5.33902 ; skirt
G1 X113.450 Y121.290 E5.36778 ; skirt
G1 X112.820 Y121.410 E5.38056 ; skirt
G1 X111.400 Y121.620 E5.40917 ; skirt
G1 X110.760 Y121.690 E5.42200 ; skirt
G1 X109.310 Y121.760 E5.45094 ; skirt
G1 X108.670 Y121.760 E5.46369 ; skirt
G1 X107.230 Y121.690 E5.49242 ; skirt
G1 X106.590 Y121.620 E5.50526 ; skirt
G1 X105.170 Y121.410 E5.53386 ; skirt
G1 X104.540 Y121.290 E5.54665 ; skirt
G1 X102.720 Y120.820 E5.58411 ; skirt
G1 X55.710 Y105.660 E6.56855 ; skirt
G1 X55.220 Y105.460 E6.57910 ; skirt
G1 X54.980 Y105.340 E6.58445 ; skirt
G1 X54.520 Y105.080 E6.59498 ; skirt
G1 X54.080 Y104.780 E6.60559 ; skirt
G1 X53.660 Y104.440 E6.61636 ; skirt
G1 X53.280 Y104.080 E6.62679 ; skirt
G1 X52.750 Y103.470 E6.64290 ; skirt
G1 X52.310 Y102.810 E6.65871 ; skirt
G1 X52.180 Y102.570 E6.66415 ; skirt
G1 X51.950 Y102.090 E6.67476 ; skirt
G1 X51.760 Y101.600 E6.68523 ; skirt
G1 X51.610 Y101.080 E6.69602 ; skirt
G1 X51.500 Y100.560 E6.70661 ; skirt
G1 X51.420 Y99.770 E6.72243 ; skirt
G1 X51.420 Y84.200 E7.03275 ; skirt
G1 X51.470 Y83.620 E7.04435 ; skirt
G1 X51.650 Y82.760 E7.06186 ; skirt
G1 X51.730 Y82.480 E7.06767 ; skirt
G1 X51.930 Y81.940 E7.07915 ; skirt
G1 X52.180 Y81.410 E7.09082 ; skirt
G1 X52.320 Y81.160 E7.09654 ; skirt
G1 X52.640 Y80.670 E7.10820 ; skirt
G1 X88.620 Y30.370 E8.34077 ; skirt
G1 X89.140 Y29.740 E8.35705 ; skirt
G1 X89.730 Y29.170 E8.37340 ; skirt
G1 X90.160 Y28.830 E8.38432 ; skirt
G1 X90.620 Y28.540 E8.39516 ; skirt
G1 X90.860 Y28.400 E8.40070 ; skirt
G1 X91.610 Y28.060 E8.41711 ; skirt
G1 X91.860 Y27.970 E8.42241 ; skirt
G1 X93.770 Y27.420 E8.46202 ; skirt
G1 X94.370 Y27.300 E8.47422 ; skirt
G1 X94.990 Y27.240 E8.48663 ; skirt
G1 X121.220 Y27.240 E9.00940 ; skirt
G1 X121.520 Y27.260 E9.01540 ; skirt
G1 X122.100 Y27.340 E9.02707 ; skirt
G1 X122.680 Y27.470 E9.03891 ; skirt
G1 X123.510 Y27.760 E9.05643 ; skirt
G1 X125.390 Y28.670 E9.09806 ; skirt
G1 X125.870 Y28.950 E9.10914 ; skirt
G1 X126.320 Y29.270 E9.12014 ; skirt
G1 X126.740 Y29.620 E9.13104 ; skirt
G1 X127.130 Y30.010 E9.14203 ; skirt
G1 X127.650 Y30.650 E9.15847 ; skirt
G1 X127.950 Y31.110 E9.16941 ; skirt
G1 X128.210 Y31.600 E9.18047 ; skirt
G1 X128.430 Y32.100 E9.19135 ; skirt
G1 X128.600 Y32.630 E9.20245 ; skirt
G1 X129.080 Y34.310 E9.23727 ; skirt
G1 X129.200 Y35.000 E9.25123 ; skirt
G1 X129.240 Y35.350 E9.25825 ; skirt
G1 X129.248 Y35.616 E9.26354 ; skirt
G1 X129.250 Y35.700 E9.26523 ; skirt
G1 F1200.000 E5.76523 ; retract
G92 E0 ; reset extrusion distance
G1 X71.983 Y99.508 F2400.000 ; move to first support material point
G1 F1200.000 E3.50000 ; compensate retraction
G1 X71.983 Y84.492 F720.000 E3.79927 ; support material
G1 X69.983 Y84.492 E3.83913 ; support material
G1 X69.983 Y87.095 E3.89102 ; support material
G1 F1200.000 E0.39102 ; retract
G92 E0 ; reset extrusion distance
G1 X67.983 Y85.826 F2400.000 ; move to first support material point
G1 F1200.000 E3.50000 ; compensate retraction
G1 X67.983 Y84.492 F720.000 E3.52659 ; support material
G1 X65.983 Y84.492 E3.56645 ; support material
G1 X65.983 Y84.831 E3.57320 ; support material
G1 F1200.000 E0.07320 ; retract
G92 E0 ; reset extrusion distance
G1 X63.983 Y85.212 F2400.000 ; move to first support material point
G1 F1200.000 E3.50000 ; compensate retraction
G1 X63.983 Y84.492 F720.000 E3.51435 ; support material
G1 X61.983 Y84.492 E3.55421 ; support material
G1 X61.983 Y85.594 E3.57617 ; support material
G1 F1200.000 E0.07617 ; retract
G92 E0 ; reset extrusion distance
G1 X59.983 Y87.605 F2400.000 ; move to first support material point
G1 F1200.000 E3.50000 ; compensate retraction
G1 X59.983 Y84.492 F720.000 E3.56205 ; support material
G1 X57.983 Y84.492 E3.60191 ; support material
G1 X57.983 Y99.508 E3.90118 ; support material
G1 X59.983 Y95.595 F2400.000 ; move to first support material point
G1 X59.983 Y99.508 F720.000 E3.97916 ; support material
G1 X61.983 Y99.508 E4.01902 ; support material
G1 X61.983 Y97.250 E4.06403 ; support material
G1 F1200.000 E0.56403 ; retract
G92 E0 ; reset extrusion distance
G1 X63.983 Y98.223 F2400.000 ; move to first support material point
G1 F1200.000 E3.50000 ; compensate retraction
G1 X63.983 Y99.508 F720.000 E3.52561 ; support material
G1 X65.983 Y99.508 E3.56547 ; support material
G1 X65.983 Y97.891 E3.59770 ; support material
G1 F1200.000 E0.09770 ; retract
G92 E0 ; reset extrusion distance
G1 X67.983 Y97.241 F2400.000 ; move to first support material point
G1 F1200.000 E3.50000 ; compensate retraction
G1 X67.983 Y99.508 F720.000 E3.54517 ; support material
G1 X69.983 Y99.508 E3.58503 ; support material
G1 X69.983 Y95.719 E3.66054 ; support material
G1 F1200.000 E0.16054 ; retract
G92 E0 ; reset extrusion distance
G1 X67.983 Y93.906 F2400.000 ; move to first support material point
G1 F1200.000 E3.50000 ; compensate retraction
G1 X67.983 Y89.241 F720.000 E3.59298 ; support material
G1 F1200.000 E0.09298 ; retract
G92 E0 ; reset extrusion distance
G1 X65.983 Y87.925 F2400.000 ; move to first support material point
G1 F1200.000 E3.50000 ; compensate retraction
G1 X65.983 Y95.328 F720.000 E3.64756 ; support material
G1 F1200.000 E0.14756 ; retract
G92 E0 ; reset extrusion distance
G1 X63.983 Y95.111 F2400.000 ; move to first support material point
G1 F1200.000 E3.50000 ; compensate retraction
G1 X63.983 Y87.889 F720.000 E3.64395 ; support material
G1 X61.983 Y89.125 F2400.000 ; move to first support material point
G1 X61.983 Y93.875 F720.000 E3.73863 ; support material
G1 F1200.000 E0.23863 ; retract
G92 E0 ; reset extrusion distance
G1 X61.535 Y94.687 F2400.000 ; move to first perimeter point
G1 F1200.000 E3.50000 ; compensate retraction
G1 X60.620 Y93.209 F1200.000 E3.53465 ; perimeter
G1 X60.300 Y91.500 E3.56930 ; perimeter
G1 X60.620 Y89.791 E3.60395 ; perimeter
G1 X61.535 Y88.313 E3.63859 ; perimeter
G1 X62.922 Y87.265 E3.67324 ; perimeter
G1 X64.594 Y86.790 E3.70789 ; perimeter
G1 X66.325 Y86.950 E3.74254 ; perimeter
G1 X67.882 Y87.725 E3.77719 ; perimeter
G1 X69.053 Y89.010 E3.81184 ; perimeter
G1 X69.681 Y90.631 E3.84648 ; perimeter
G1 X69.681 Y92.369 E3.88113 ; perimeter
G1 X69.053 Y93.990 E3.91578 ; perimeter
G1 X67.882 Y95.275 E3.95043 ; perimeter
G1 X66.325 Y96.050 E3.98508 ; perimeter
G1 X64.594 Y96.210 E4.01973 ; perimeter
G1 X62.922 Y95.735 E4.05437 ; perimeter
G1 X61.602 Y94.738 E4.08734 ; perimeter
G1 X61.535 Y94.687 E4.08902 ; perimeter
G1 X60.978 Y94.773 F2400.000 ; move inwards before travel
G1 F1200.000 E0.58902 ; retract
G92 E0 ; reset extrusion distance
G1 X70.701 Y93.745 F2400.000 ; move to first perimeter point
G1 F1200.000 E3.50000 ; compensate retraction
G1 X69.964 Y95.084 F1200.000 E3.53047 ; perimeter
G1 X68.918 Y96.199 E3.56093 ; perimeter
G1 X67.627 Y97.018 E3.59140 ; perimeter
G1 X66.174 Y97.490 E3.62186 ; perimeter
G1 X64.648 Y97.586 E3.65233 ; perimeter
G1 X63.146 Y97.300 E3.68279 ; perimeter
G1 X61.763 Y96.649 E3.71326 ; perimeter
G1 X60.586 Y95.674 E3.74372 ; perimeter
G1 X59.687 Y94.438 E3.77419 ; perimeter
G1 X59.124 Y93.017 E3.80465 ; perimeter
G1 X58.933 Y91.500 E3.83512 ; perimeter
G1 X59.124 Y89.983 E3.86558 ; perimeter
G1 X59.687 Y88.562 E3.89605 ; perimeter
G1 X60.586 Y87.326 E3.92651 ; perimeter
G1 X61.763 Y86.351 E3.95698 ; perimeter
G1 X63.146 Y85.700 E3.98744 ; perimeter
G1 X64.648 Y85.414 E4.01791 ; perimeter
G1 X66.174 Y85.510 E4.04837 ; perimeter
G1 X67.627 Y85.982 E4.07884 ; perimeter
G1 X68.918 Y86.801 E4.10930 ; perimeter
G1 X69.964 Y87.916 E4.13977 ; perimeter
G1 X70.701 Y89.255 E4.17024 ; perimeter
G1 X71.081 Y90.736 E4.20070 ; perimeter
G1 X71.081 Y92.264 E4.23117 ; perimeter
G1 X70.722 Y93.663 E4.25995 ; perimeter
G1 X70.701 Y93.745 E4.26163 ; perimeter
G1 F1200.000 E0.76163 ; retract
G92 E0 ; reset extrusion distance
G1 X61.193 Y95.453 F2400.000 ; move to first fill point
G1 F1200.000 E3.50000 ; compensate retraction
G1 X60.389 Y93.830 F960.000 E3.53708 ; fill
G1 X59.685 Y93.127 E3.55744 ; fill
G1 X60.079 Y92.702 E3.56929 ; fill
G1 X59.433 Y92.056 E3.58801 ; fill
G1 X59.891 Y91.695 E3.59994 ; fill
G1 X59.360 Y91.164 E3.61532 ; fill
G1 X60.015 Y91.001 E3.62914 ; fill
G1 X59.451 Y90.437 E3.64545 ; fill
G1 X59.589 Y89.757 E3.65966 ; fill
G1 X60.144 Y90.311 E3.67571 ; fill
G1 X60.309 Y89.658 E3.68951 ; fill
G1 X59.821 Y89.171 E3.70361 ; fill
G1 X60.069 Y88.600 E3.71634 ; fill
G1 X60.622 Y89.152 E3.73233 ; fill
G1 X60.935 Y88.647 E3.74450 ; fill
G1 X60.414 Y88.126 E3.75958 ; fill
G1 X60.758 Y87.652 E3.77158 ; fill
G1 X61.248 Y88.141 E3.78575 ; fill
G1 X61.699 Y87.775 E3.79766 ; fill
G1 X61.183 Y87.258 E3.81260 ; fill
G1 X61.631 Y86.888 E3.82450 ; fill
G1 X62.166 Y87.422 E3.83998 ; fill
G1 X62.632 Y87.070 E3.85194 ; fill
G1 X62.123 Y86.561 E3.86668 ; fill
G1 X62.679 Y86.299 E3.87927 ; fill
G1 X63.194 Y86.814 E3.89416 ; fill
G1 X63.831 Y86.632 E3.90772 ; fill
G1 X63.257 Y86.058 E3.92435 ; fill
G1 X63.944 Y85.927 E3.93867 ; fill
G1 X64.468 Y86.451 E3.95385 ; fill
G1 X64.665 Y85.830 E3.96719 ; fill
G1 X65.266 Y86.430 E3.98458 ; fill
G1 X65.539 Y85.885 E3.99707 ; fill
G1 X66.168 Y86.514 E4.01528 ; fill
G1 X66.617 Y86.145 E4.02719 ; fill
G1 X67.396 Y86.923 E4.04973 ; fill
G1 X68.365 Y87.074 E4.06979 ; fill
G1 X68.725 Y87.434 E4.08024 ; fill
G1 X69.620 Y89.148 E4.11980 ; fill
G1 X70.408 Y89.936 E4.14261 ; fill
G1 X70.083 Y90.429 E4.15471 ; fill
G1 X70.679 Y91.024 E4.17194 ; fill
G1 X70.083 Y91.248 E4.18495 ; fill
G1 X70.679 Y91.843 E4.20218 ; fill
G1 X70.083 Y92.066 E4.21520 ; fill
G1 X70.619 Y92.602 E4.23071 ; fill
G1 X70.452 Y93.253 E4.24447 ; fill
G1 X69.920 Y92.721 E4.25987 ; fill
G1 X69.691 Y93.311 E4.27283 ; fill
G1 X70.247 Y93.867 E4.28893 ; fill
G1 X69.957 Y94.395 E4.30127 ; fill
G1 X69.463 Y93.901 E4.31559 ; fill
G1 X69.133 Y94.390 F2400.000 ; move to first fill point
G1 X69.666 Y94.923 F960.000 E4.33101 ; fill
G1 X69.270 Y95.345 E4.34287 ; fill
G1 X68.743 Y94.818 E4.35812 ; fill
G1 X68.352 Y95.246 E4.36998 ; fill
G1 X68.873 Y95.767 E4.38505 ; fill
G1 X68.412 Y96.124 E4.39699 ; fill
G1 X67.923 Y95.635 E4.41114 ; fill
G1 X67.377 Y95.908 E4.42363 ; fill
G1 X67.911 Y96.442 E4.43909 ; fill
G1 X67.376 Y96.725 E4.45149 ; fill
G1 X66.831 Y96.180 E4.46728 ; fill
G1 X66.275 Y96.443 E4.47986 ; fill
G1 X66.758 Y96.926 E4.49385 ; fill
G1 X66.115 Y97.102 E4.50749 ; fill
G1 X65.526 Y96.512 E4.52455 ; fill
G1 X65.345 Y97.150 E4.53812 ; fill
G1 X64.777 Y96.582 E4.55456 ; fill
G1 X64.485 Y97.108 E4.56689 ; fill
G1 X63.853 Y96.476 E4.58518 ; fill
G1 X63.456 Y96.897 E4.59703 ; fill
G1 X62.709 Y96.150 E4.61866 ; fill
G1 F1200.000 E1.11866 ; retract
G92 E0 ; reset extrusion distance
G1 X110.584 Y52.582 F2400.000 ; move to first support material point
G1 F1200.000 E3.50000 ; compensate retraction
G1 X110.584 Y49.360 F720.000 E3.56421 ; support material
G1 X108.584 Y49.360 E3.60407 ; support material
G1 X108.584 Y51.884 E3.65439 ; support material
G1 F1200.000 E0.15439 ; retract
G92 E0 ; reset extrusion distance
G1 X106.584 Y52.341 F2400.000 ; move to first support material point
G1 F1200.000 E3.50000 ; compensate retraction
G1 X106.584 Y49.360 F720.000 E3.55941 ; support material
G1 X104.584 Y49.360 E3.59927 ; support material
G1 X104.584 Y54.144 E3.69463 ; support material
G1 F1200.000 E0.19463 ; retract
G92 E0 ; reset extrusion distance
G1 X104.584 Y57.856 F2400.000 ; move to first support material point
G1 F1200.000 E3.50000 ; compensate retraction
G1 X104.584 Y62.640 F720.000 E3.59536 ; support material
G1 X102.584 Y59.682 E3.66652 ; support material
G1 X102.584 Y52.317 E3.81331 ; support material
G1 X100.584 Y55.782 E3.89303 ; support material
G1 X100.584 Y56.218 E3.90173 ; support material
G1 F1200.000 E0.40173 ; retract
G92 E0 ; reset extrusion distance
G1 X106.584 Y59.981 F2400.000 ; move to first support material point
G1 F1200.000 E3.50000 ; compensate retraction
G1 X106.584 Y62.640 F720.000 E3.55299 ; support material
G1 X108.584 Y62.640 E3.59286 ; support material
G1 X108.584 Y59.849 E3.64849 ; support material
G1 F1200.000 E0.14849 ; retract
G92 E0 ; reset extrusion distance
G1 X110.584 Y59.392 F2400.000 ; move to first support material point
G1 F1200.000 E3.50000 ; compensate retraction
G1 X110.584 Y62.640 F720.000 E3.56473 ; support material
G1 X112.584 Y61.007 E3.61620 ; support material
G1 X112.584 Y50.883 E3.81797 ; support material
G1 X114.584 Y54.357 E3.89787 ; support material
G1 X114.584 Y57.609 E3.96268 ; support material
G1 F1200.000 E0.46268 ; retract
G92 E0 ; reset extrusion distance
G1 X108.591 Y44.108 F2400.000 ; move to first perimeter point
G1 F1200.000 E3.50000 ; compensate retraction
G1 X106.276 Y43.775 F1200.000 E3.54660 ; perimeter
G1 X104.509 Y42.244 E3.59321 ; perimeter
G1 X103.850 Y40.000 E3.63981 ; perimeter
G1 X104.509 Y37.756 E3.68642 ; perimeter
G1 X106.276 Y36.225 E3.73302 ; perimeter
G1 X108.591 Y35.892 E3.77963 ; perimeter
G1 X110.718 Y36.864 E3.82623 ; perimeter
G1 X111.982 Y38.831 E3.87284 ; perimeter
G1 X111.982 Y41.169 E3.91944 ; perimeter
G1 X110.718 Y43.136 E3.96604 ; perimeter
G1 X108.667 Y44.073 E4.01096 ; perimeter
G1 X108.591 Y44.108 E4.01265 ; perimeter
G1 X108.507 Y43.526 F2400.000 ; move to first perimeter point
G1 X106.520 Y43.241 F1200.000 E4.05266 ; perimeter
G1 X105.003 Y41.926 E4.09267 ; perimeter
G1 X104.437 Y40.000 E4.13268 ; perimeter
G1 X105.003 Y38.074 E4.17269 ; perimeter
G1 X106.520 Y36.759 E4.21269 ; perimeter
G1 X108.507 Y36.474 E4.25270 ; perimeter
G1 X110.333 Y37.308 E4.29271 ; perimeter
G1 X111.418 Y38.996 E4.33272 ; perimeter
G1 X111.418 Y41.004 E4.37273 ; perimeter
G1 X110.333 Y42.692 E4.41274 ; perimeter
G1 X108.584 Y43.491 E4.45106 ; perimeter
G1 X108.507 Y43.526 E4.45275 ; perimeter
G1 X108.249 Y44.027 F2400.000 ; move inwards before travel
G1 F1200.000 E0.95275 ; retract
G92 E0 ; reset extrusion distance
G1 X111.336 Y47.523 F2400.000 ; move to first perimeter point
G1 F1200.000 E3.50000 ; compensate retraction
G1 X113.179 Y47.029 F1680.000 E3.53804 ; perimeter
G1 X113.673 Y48.872 E3.57607 ; perimeter
G1 X117.009 Y54.651 E3.70905 ; perimeter
G1 X118.359 Y56.000 E3.74708 ; perimeter
G1 X117.009 Y57.349 E3.78512 ; perimeter
