; generated by Slic3r 0.9.8 on 2013-04-24 at 22:59:44

; layer_height = 0.3
; perimeters = 3
; top_solid_layers = 3
; bottom_solid_layers = 3
; fill_density = 0.3
; perimeter_speed = 45
; infill_speed = 40
; travel_speed = 45
; scale = 1
; nozzle_diameter = 0.5
; filament_diameter = 3
; extrusion_multiplier = 1.00
; perimeters extrusion width = 0.50mm
; infill extrusion width = 0.50mm
; first layer extrusion width = 0.30mm

M107 ; disable fan
M104 S235 ; set temperature
G28 ; home all axes
M109 S235 ; wait for temperature to be reached
G90 ; use absolute coordinates
G21 ; set units to millimeters
G92 E0 ; reset extrusion distance
M82 ; use absolute distances for extrusion
G1 F1200.000 E-3.00000 ; retract
G92 E0 ; reset extrusion distance
G1 Z0.300 F2700.000 ; move to next layer (0)
G1 X21.810 Y35.150 ; move to first skirt point
G1 F1200.000 E3.00000 ; compensate retraction
G1 X21.840 Y34.510 F2160.000 E3.00932 ; skirt
G1 X21.880 Y34.180 E3.01416 ; skirt
G1 X22.010 Y33.550 E3.02352 ; skirt
G1 X22.600 Y31.680 E3.05206 ; skirt
G1 X22.930 Y30.930 E3.06399 ; skirt
G1 X23.200 Y30.460 E3.07188 ; skirt
G1 X23.510 Y30.010 E3.07983 ; skirt
G1 X24.050 Y29.390 E3.09180 ; skirt
G1 X24.670 Y28.840 E3.10386 ; skirt
G1 X25.120 Y28.520 E3.11190 ; skirt
G1 X25.350 Y28.380 E3.11581 ; skirt
G1 X25.830 Y28.120 E3.12376 ; skirt
G1 X27.300 Y27.420 E3.14746 ; skirt
G1 X27.820 Y27.200 E3.15567 ; skirt
G1 X28.630 Y26.960 E3.16797 ; skirt
G1 X29.190 Y26.860 E3.17625 ; skirt
G1 X29.750 Y26.810 E3.18443 ; skirt
G1 X166.160 Y26.820 E5.16974 ; skirt
G1 X166.810 Y26.880 E5.17924 ; skirt
G1 X167.440 Y27.010 E5.18860 ; skirt
G1 X169.050 Y27.510 E5.21314 ; skirt
G1 X169.560 Y27.700 E5.22106 ; skirt
G1 X170.060 Y27.930 E5.22907 ; skirt
G1 X170.760 Y28.350 E5.24095 ; skirt
G1 X171.200 Y28.690 E5.24904 ; skirt
G1 X171.600 Y29.050 E5.25688 ; skirt
G1 X172.150 Y29.670 E5.26894 ; skirt
G1 X172.470 Y30.120 E5.27697 ; skirt
G1 X172.610 Y30.350 E5.28089 ; skirt
G1 X172.870 Y30.830 E5.28884 ; skirt
G1 X173.570 Y32.300 E5.31253 ; skirt
G1 X173.790 Y32.820 E5.32075 ; skirt
G1 X174.030 Y33.630 E5.33305 ; skirt
G1 X174.130 Y34.190 E5.34133 ; skirt
G1 X174.180 Y34.750 E5.34951 ; skirt
G1 X174.180 Y140.840 E6.89354 ; skirt
G1 X174.150 Y141.480 E6.90287 ; skirt
G1 X174.110 Y141.810 E6.90770 ; skirt
G1 X173.980 Y142.440 E6.91707 ; skirt
G1 X173.480 Y144.050 E6.94160 ; skirt
G1 X173.290 Y144.560 E6.94952 ; skirt
G1 X173.060 Y145.060 E6.95753 ; skirt
G1 X172.640 Y145.760 E6.96941 ; skirt
G1 X172.300 Y146.200 E6.97751 ; skirt
G1 X171.940 Y146.600 E6.98534 ; skirt
G1 X171.320 Y147.150 E6.99740 ; skirt
G1 X170.870 Y147.470 E7.00544 ; skirt
G1 X170.640 Y147.610 E7.00936 ; skirt
G1 X170.160 Y147.870 E7.01730 ; skirt
G1 X168.690 Y148.570 E7.04100 ; skirt
G1 X168.170 Y148.790 E7.04922 ; skirt
G1 X167.360 Y149.030 E7.06151 ; skirt
G1 X166.800 Y149.130 E7.06979 ; skirt
G1 X166.240 Y149.180 E7.07797 ; skirt
G1 X56.080 Y149.180 E8.68124 ; skirt
G1 X55.250 Y149.090 E8.69339 ; skirt
G1 X54.440 Y148.890 E8.70553 ; skirt
G1 X54.180 Y148.800 E8.70954 ; skirt
G1 X53.920 Y148.700 E8.71359 ; skirt
G1 X53.180 Y148.330 E8.72563 ; skirt
G1 X52.710 Y148.030 E8.73375 ; skirt
G1 X52.480 Y147.860 E8.73791 ; skirt
G1 X52.060 Y147.500 E8.74596 ; skirt
G1 X51.670 Y147.110 E8.75399 ; skirt
G1 X23.460 Y116.110 E9.36401 ; skirt
G1 X22.940 Y115.460 E9.37612 ; skirt
G1 X22.650 Y115.000 E9.38404 ; skirt
G1 X22.290 Y114.260 E9.39601 ; skirt
G1 X22.020 Y113.470 E9.40817 ; skirt
G1 X21.900 Y112.940 E9.41607 ; skirt
G1 X21.810 Y112.120 E9.42808 ; skirt
G1 X21.810 Y35.201 E10.54755 ; skirt
G1 X21.810 Y35.150 E10.54830 ; skirt
G1 F1200.000 E7.54830 ; retract
G92 E0 ; reset extrusion distance
G1 X157.135 Y41.000 F2700.000 ; move to first perimeter point
G1 F1200.000 E3.00000 ; compensate retraction
G1 X157.519 Y39.567 F1680.000 E3.02159 ; perimeter
G1 X158.567 Y38.518 E3.04317 ; perimeter
G1 X160.000 Y38.135 E3.06476 ; perimeter
G1 X161.433 Y38.518 E3.08635 ; perimeter
G1 X162.481 Y39.567 E3.10793 ; perimeter
G1 X162.865 Y41.000 E3.12952 ; perimeter
G1 X162.481 Y42.433 E3.15111 ; perimeter
G1 X161.433 Y43.481 E3.17269 ; perimeter
G1 X160.000 Y43.865 E3.19428 ; perimeter
G1 X158.567 Y43.481 E3.21587 ; perimeter
G1 X157.519 Y42.433 E3.23745 ; perimeter
G1 X157.148 Y41.050 E3.25829 ; perimeter
G1 X157.135 Y41.000 E3.25904 ; perimeter
G1 X157.490 Y41.000 F2700.000 ; move to first perimeter point
G1 X157.826 Y39.745 F1680.000 E3.27795 ; perimeter
G1 X158.745 Y38.826 E3.29686 ; perimeter
G1 X160.000 Y38.490 E3.31577 ; perimeter
G1 X161.255 Y38.826 E3.33469 ; perimeter
G1 X162.174 Y39.745 E3.35360 ; perimeter
G1 X162.510 Y41.000 E3.37251 ; perimeter
G1 X162.174 Y42.255 E3.39142 ; perimeter
G1 X161.255 Y43.174 E3.41033 ; perimeter
G1 X160.000 Y43.510 E3.42925 ; perimeter
G1 X158.745 Y43.174 E3.44816 ; perimeter
G1 X157.826 Y42.255 E3.46707 ; perimeter
G1 X157.503 Y41.050 E3.48523 ; perimeter
G1 X157.490 Y41.000 E3.48598 ; perimeter
G1 X157.845 Y41.000 F2700.000 ; move to first perimeter point
G1 X158.134 Y39.922 F1680.000 E3.50222 ; perimeter
G1 X158.922 Y39.133 E3.51846 ; perimeter
G1 X160.000 Y38.845 E3.53469 ; perimeter
G1 X161.078 Y39.133 E3.55093 ; perimeter
G1 X161.866 Y39.922 E3.56717 ; perimeter
G1 X162.155 Y41.000 E3.58340 ; perimeter
G1 X161.866 Y42.078 E3.59964 ; perimeter
G1 X161.078 Y42.867 E3.61588 ; perimeter
G1 X160.000 Y43.155 E3.63212 ; perimeter
G1 X158.922 Y42.867 E3.64835 ; perimeter
G1 X158.134 Y42.078 E3.66459 ; perimeter
G1 X157.858 Y41.050 E3.68008 ; perimeter
G1 X157.845 Y41.000 E3.68083 ; perimeter
G1 X157.564 Y40.803 F2700.000 ; move inwards before travel
G1 F1200.000 E0.68083 ; retract
G92 E0 ; reset extrusion distance
G1 X160.000 Y102.135 F2700.000 ; move to first perimeter point
G1 F1200.000 E3.00000 ; compensate retraction
G1 X161.433 Y102.519 F1680.000 E3.02159 ; perimeter
G1 X162.481 Y103.567 E3.04317 ; perimeter
G1 X162.865 Y105.000 E3.06476 ; perimeter
G1 X162.481 Y106.433 E3.08635 ; perimeter
G1 X161.433 Y107.481 E3.10793 ; perimeter
G1 X160.000 Y107.865 E3.12952 ; perimeter
G1 X158.567 Y107.481 E3.15111 ; perimeter
G1 X157.519 Y106.433 E3.17269 ; perimeter
G1 X157.135 Y105.000 E3.19428 ; perimeter
G1 X157.519 Y103.567 E3.21586 ; perimeter
G1 X158.567 Y102.519 E3.23745 ; perimeter
G1 X159.950 Y102.148 E3.25829 ; perimeter
G1 X160.000 Y102.135 E3.25904 ; perimeter
G1 X160.000 Y102.490 F2700.000 ; move to first perimeter point
G1 X161.255 Y102.826 F1680.000 E3.27795 ; perimeter
G1 X162.174 Y103.745 E3.29686 ; perimeter
G1 X162.510 Y105.000 E3.31577 ; perimeter
G1 X162.174 Y106.255 E3.33468 ; perimeter
G1 X161.255 Y107.174 E3.35359 ; perimeter
G1 X160.000 Y107.510 E3.37251 ; perimeter
G1 X158.745 Y107.174 E3.39142 ; perimeter
G1 X157.826 Y106.255 E3.41033 ; perimeter
G1 X157.490 Y105.000 E3.42924 ; perimeter
G1 X157.826 Y103.745 E3.44815 ; perimeter
G1 X158.745 Y102.826 E3.46707 ; perimeter
G1 X159.950 Y102.503 E3.48523 ; perimeter
G1 X160.000 Y102.490 E3.48598 ; perimeter
G1 X160.000 Y102.845 F2700.000 ; move to first perimeter point
G1 X161.078 Y103.133 F1680.000 E3.50222 ; perimeter
G1 X161.866 Y103.922 E3.51845 ; perimeter
G1 X162.155 Y105.000 E3.53469 ; perimeter
G1 X161.866 Y106.078 E3.55093 ; perimeter
G1 X161.078 Y106.867 E3.56716 ; perimeter
G1 X160.000 Y107.155 E3.58340 ; perimeter
G1 X159.036 Y106.897 E3.59792 ; perimeter
G1 X158.922 Y106.867 E3.59964 ; perimeter
G1 X158.134 Y106.078 E3.61587 ; perimeter
G1 X157.845 Y105.000 E3.63211 ; perimeter
G1 X158.134 Y103.922 E3.64835 ; perimeter
G1 X158.922 Y103.133 E3.66459 ; perimeter
G1 X159.950 Y102.858 E3.68008 ; perimeter
G1 X160.000 Y102.845 E3.68082 ; perimeter
G1 X160.197 Y102.564 F2700.000 ; move inwards before travel
G1 F1200.000 E0.68082 ; retract
G92 E0 ; reset extrusion distance
G1 X38.865 Y105.000 F2700.000 ; move to first perimeter point
G1 F1200.000 E3.00000 ; compensate retraction
G1 X38.481 Y106.433 F1680.000 E3.02159 ; perimeter
G1 X37.433 Y107.481 E3.04317 ; perimeter
G1 X36.000 Y107.865 E3.06476 ; perimeter
G1 X34.567 Y107.481 E3.08635 ; perimeter
G1 X33.519 Y106.433 E3.10793 ; perimeter
G1 X33.135 Y105.000 E3.12952 ; perimeter
G1 X33.519 Y103.567 E3.15111 ; perimeter
G1 X34.567 Y102.519 E3.17269 ; perimeter
G1 X36.000 Y102.135 E3.19428 ; perimeter
G1 X37.433 Y102.519 E3.21586 ; perimeter
G1 X38.481 Y103.567 E3.23745 ; perimeter
G1 X38.852 Y104.950 E3.25829 ; perimeter
G1 X38.865 Y105.000 E3.25904 ; perimeter
G1 X38.510 Y105.000 F2700.000 ; move to first perimeter point
G1 X38.174 Y106.255 F1680.000 E3.27795 ; perimeter
G1 X37.255 Y107.174 E3.29686 ; perimeter
G1 X36.000 Y107.510 E3.31577 ; perimeter
G1 X34.745 Y107.174 E3.33469 ; perimeter
G1 X33.826 Y106.255 E3.35360 ; perimeter
G1 X33.490 Y105.000 E3.37251 ; perimeter
G1 X33.826 Y103.745 E3.39142 ; perimeter
G1 X34.745 Y102.826 E3.41033 ; perimeter
G1 X36.000 Y102.490 E3.42925 ; perimeter
G1 X37.255 Y102.826 E3.44816 ; perimeter
G1 X38.174 Y103.745 E3.46707 ; perimeter
G1 X38.497 Y104.950 E3.48523 ; perimeter
G1 X38.510 Y105.000 E3.48598 ; perimeter
G1 X38.155 Y105.000 F2700.000 ; move to first perimeter point
G1 X37.867 Y106.078 F1680.000 E3.50222 ; perimeter
G1 X37.078 Y106.867 E3.51846 ; perimeter
G1 X36.000 Y107.155 E3.53469 ; perimeter
G1 X34.922 Y106.867 E3.55093 ; perimeter
G1 X34.133 Y106.078 E3.56717 ; perimeter
G1 X33.845 Y105.000 E3.58340 ; perimeter
G1 X34.133 Y103.922 E3.59964 ; perimeter
G1 X34.922 Y103.133 E3.61588 ; perimeter
G1 X36.000 Y102.845 E3.63212 ; perimeter
G1 X37.078 Y103.133 E3.64835 ; perimeter
G1 X37.867 Y103.922 E3.66459 ; perimeter
G1 X38.142 Y104.950 E3.68008 ; perimeter
G1 X38.155 Y105.000 E3.68083 ; perimeter
G1 X38.436 Y105.197 F2700.000 ; move inwards before travel
G1 F1200.000 E0.68083 ; retract
G92 E0 ; reset extrusion distance
G1 X58.978 Y93.259 F2700.000 ; move to first perimeter point
G1 F1200.000 E3.00000 ; compensate retraction
G1 X58.246 Y91.127 F2160.000 E3.03281 ; perimeter
G1 X58.246 Y88.873 E3.06561 ; perimeter
G1 X58.978 Y86.741 E3.09842 ; perimeter
G1 X60.362 Y84.962 E3.13122 ; perimeter
G1 X62.249 Y83.729 E3.16403 ; perimeter
G1 X64.435 Y83.176 E3.19684 ; perimeter
G1 X66.681 Y83.362 E3.22964 ; perimeter
G1 X68.745 Y84.268 E3.26245 ; perimeter
G1 X70.404 Y85.794 E3.29525 ; perimeter
G1 X71.476 Y87.777 E3.32806 ; perimeter
G1 X71.847 Y90.000 E3.36087 ; perimeter
G1 X71.548 Y91.794 E3.38734 ; perimeter
G1 X71.672 Y91.849 E3.38932 ; perimeter
G1 X72.362 Y90.962 E3.40566 ; perimeter
G1 X74.249 Y89.729 E3.43847 ; perimeter
G1 X76.435 Y89.176 E3.47128 ; perimeter
G1 X78.681 Y89.362 E3.50408 ; perimeter
G1 X80.745 Y90.268 E3.53689 ; perimeter
G1 X82.304 Y91.703 E3.56773 ; perimeter
G1 X82.418 Y91.629 E3.56971 ; perimeter
G1 X82.246 Y91.127 E3.57743 ; perimeter
G1 X82.246 Y88.873 E3.61024 ; perimeter
G1 X82.978 Y86.741 E3.64304 ; perimeter
G1 X84.362 Y84.962 E3.67585 ; perimeter
G1 X86.249 Y83.729 E3.70865 ; perimeter
G1 X88.435 Y83.176 E3.74146 ; perimeter
G1 X90.681 Y83.362 E3.77427 ; perimeter
G1 X92.745 Y84.268 E3.80707 ; perimeter
G1 X94.404 Y85.794 E3.83988 ; perimeter
G1 X95.476 Y87.777 E3.87268 ; perimeter
G1 X95.847 Y90.000 E3.90549 ; perimeter
G1 X95.548 Y91.794 E3.93196 ; perimeter
G1 X95.672 Y91.849 E3.93394 ; perimeter
G1 X96.362 Y90.962 E3.95029 ; perimeter
G1 X98.249 Y89.729 E3.98309 ; perimeter
G1 X100.435 Y89.176 E4.01590 ; perimeter
G1 X102.681 Y89.362 E4.04871 ; perimeter
G1 X104.745 Y90.268 E4.08151 ; perimeter
G1 X106.404 Y91.794 E4.11432 ; perimeter
G1 X107.476 Y93.777 E4.14713 ; perimeter
G1 X107.524 Y94.060 E4.15131 ; perimeter
G1 X107.847 Y96.000 E4.17993 ; perimeter
G1 X107.476 Y98.223 E4.21274 ; perimeter
G1 X106.404 Y100.206 E4.24554 ; perimeter
G1 X104.745 Y101.732 E4.27835 ; perimeter
G1 X102.681 Y102.638 E4.31116 ; perimeter
G1 X100.435 Y102.824 E4.34396 ; perimeter
G1 X98.249 Y102.271 E4.37677 ; perimeter
G1 X96.362 Y101.038 E4.40957 ; perimeter
G1 X94.978 Y99.259 E4.44238 ; perimeter
G1 X94.246 Y97.127 E4.47518 ; perimeter
G1 X94.246 Y94.873 E4.50799 ; perimeter
G1 X94.418 Y94.371 E4.51571 ; perimeter
G1 X94.304 Y94.297 E4.51769 ; perimeter
G1 X92.745 Y95.732 E4.54853 ; perimeter
G1 X90.681 Y96.638 E4.58134 ; perimeter
G1 X88.435 Y96.824 E4.61414 ; perimeter
G1 X86.249 Y96.271 E4.64695 ; perimeter
G1 X84.362 Y95.038 E4.67976 ; perimeter
G1 X83.672 Y94.151 E4.69611 ; perimeter
G1 X83.548 Y94.206 E4.69808 ; perimeter
G1 X83.847 Y96.000 E4.72456 ; perimeter
G1 X83.476 Y98.223 E4.75736 ; perimeter
G1 X82.404 Y100.206 E4.79017 ; perimeter
G1 X80.745 Y101.732 E4.82297 ; perimeter
G1 X78.681 Y102.638 E4.85578 ; perimeter
G1 X76.435 Y102.824 E4.88859 ; perimeter
G1 X74.249 Y102.271 E4.92139 ; perimeter
G1 X72.362 Y101.038 E4.95420 ; perimeter
G1 X70.978 Y99.259 E4.98700 ; perimeter
G1 X70.246 Y97.127 E5.01981 ; perimeter
G1 X70.246 Y94.873 E5.05262 ; perimeter
G1 X70.418 Y94.371 E5.06033 ; perimeter
G1 X70.304 Y94.297 E5.06231 ; perimeter
G1 X68.745 Y95.732 E5.09316 ; perimeter
G1 X66.681 Y96.638 E5.12596 ; perimeter
G1 X64.435 Y96.824 E5.15877 ; perimeter
G1 X62.249 Y96.271 E5.19157 ; perimeter
G1 X60.362 Y95.038 E5.22438 ; perimeter
G1 X59.010 Y93.300 E5.25644 ; perimeter
G1 X58.978 Y93.259 E5.25719 ; perimeter
G1 X59.284 Y93.094 F2700.000 ; move to first perimeter point
G1 X58.589 Y91.070 F1680.000 E5.28833 ; perimeter
G1 X58.589 Y88.930 E5.31947 ; perimeter
G1 X59.284 Y86.906 E5.35061 ; perimeter
G1 X60.598 Y85.218 E5.38175 ; perimeter
G1 X62.389 Y84.048 E5.41289 ; perimeter
G1 X64.463 Y83.522 E5.44403 ; perimeter
G1 X66.596 Y83.699 E5.47517 ; perimeter
G1 X68.555 Y84.559 E5.50631 ; perimeter
G1 X70.129 Y86.008 E5.53745 ; perimeter
G1 X71.148 Y87.890 E5.56859 ; perimeter
G1 X71.500 Y90.000 E5.59973 ; perimeter
G1 X71.148 Y92.110 E5.63087 ; perimeter
G1 X70.129 Y93.992 E5.66201 ; perimeter
G1 X68.555 Y95.441 E5.69315 ; perimeter
G1 X66.596 Y96.301 E5.72429 ; perimeter
G1 X64.463 Y96.478 E5.75543 ; perimeter
G1 X62.389 Y95.952 E5.78657 ; perimeter
G1 X60.598 Y94.782 E5.81771 ; perimeter
G1 X59.315 Y93.134 E5.84810 ; perimeter
G1 X59.284 Y93.094 E5.84885 ; perimeter
G1 X59.589 Y92.928 F2700.000 ; move to first perimeter point
G1 X58.932 Y91.013 F1680.000 E5.87833 ; perimeter
G1 X58.932 Y88.987 E5.90780 ; perimeter
G1 X59.589 Y87.072 E5.93728 ; perimeter
G1 X60.833 Y85.474 E5.96675 ; perimeter
G1 X62.529 Y84.366 E5.99622 ; perimeter
G1 X64.492 Y83.869 E6.02570 ; perimeter
G1 X66.510 Y84.036 E6.05517 ; perimeter
G1 X68.365 Y84.850 E6.08465 ; perimeter
G1 X69.855 Y86.221 E6.11412 ; perimeter
G1 X70.819 Y88.002 E6.14360 ; perimeter
G1 X71.152 Y90.000 E6.17307 ; perimeter
G1 X70.819 Y91.998 E6.20255 ; perimeter
G1 X69.855 Y93.779 E6.23202 ; perimeter
G1 X68.365 Y95.150 E6.26150 ; perimeter
G1 X66.510 Y95.964 E6.29097 ; perimeter
G1 X64.492 Y96.131 E6.32045 ; perimeter
G1 X62.529 Y95.634 E6.34992 ; perimeter
G1 X60.833 Y94.526 E6.37940 ; perimeter
G1 X59.621 Y92.969 E6.40812 ; perimeter
G1 X59.589 Y92.928 E6.40887 ; perimeter
G1 X59.248 Y92.900 F2700.000 ; move inwards before travel
G1 F1200.000 E3.40887 ; retract
G92 E0 ; reset extrusion distance
G1 X70.589 Y94.930 F2700.000 ; move to first perimeter point
G1 F1200.000 E3.00000 ; compensate retraction
G1 X71.284 Y92.906 F1680.000 E3.03114 ; perimeter
G1 X72.598 Y91.218 E3.06228 ; perimeter
G1 X74.389 Y90.048 E3.09342 ; perimeter
G1 X76.463 Y89.522 E3.12456 ; perimeter
G1 X78.596 Y89.699 E3.15570 ; perimeter
G1 X80.555 Y90.559 E3.18684 ; perimeter
G1 X82.129 Y92.008 E3.21798 ; perimeter
G1 X83.148 Y93.890 E3.24912 ; perimeter
G1 X83.500 Y96.000 E3.28026 ; perimeter
G1 X83.148 Y98.110 E3.31140 ; perimeter
G1 X82.129 Y99.992 E3.34254 ; perimeter
G1 X80.555 Y101.441 E3.37368 ; perimeter
G1 X78.596 Y102.301 E3.40482 ; perimeter
G1 X76.463 Y102.478 E3.43596 ; perimeter
G1 X74.389 Y101.952 E3.46710 ; perimeter
G1 X72.598 Y100.782 E3.49824 ; perimeter
G1 X71.284 Y99.094 E3.52938 ; perimeter
G1 X70.589 Y97.070 E3.56052 ; perimeter
G1 X70.589 Y94.982 E3.59092 ; perimeter
G1 X70.589 Y94.930 E3.59167 ; perimeter
G1 X70.932 Y94.987 F2700.000 ; move to first perimeter point
G1 X71.589 Y93.072 F1680.000 E3.62114 ; perimeter
